public/logos/postgres-mono.svg

<svg width="256" height="256" viewBox="0 0 256 256" fill="none" xmlns="http://www.w3.org/2000/svg">
  <path fill-rule="evenodd" clip-rule="evenodd" d="M182.367 94.0268C182.761 91.4637 183.132 89.0082 183.177 86.3036C172.409 84.9635 168.119 87.4523 166.429 89.873C160.754 98.0055 171.839 117.936 176.573 126.446L176.573 126.447C177.79 128.633 178.669 130.213 179.074 131.196C179.494 132.215 179.976 133.208 180.516 134.169C183.772 127.223 182.931 120.184 182.111 113.346L182.111 113.34C181.706 109.956 181.287 106.458 181.395 103.093C181.506 99.6334 181.943 96.7834 182.367 94.0268ZM207.231 58.0724C198.392 46.7494 185.907 40.8306 170.125 40.4813C163.895 40.3426 158.331 41.1309 154.262 41.9764C163.722 46.1606 170.65 52.3642 175.401 57.9078C184.086 68.0427 188.347 79.2404 188.698 82.9819C188.752 83.5559 188.711 84.0394 188.608 84.4488C188.746 88.3504 188.246 91.6603 187.756 94.8589C187.357 97.4545 186.944 100.139 186.845 103.269C186.748 106.222 187.126 109.366 187.525 112.694C188.497 120.804 189.589 129.952 184.005 139.198L184.278 139.541C184.498 139.816 184.716 140.092 184.934 140.369C206.545 106.276 214.01 66.7575 207.231 58.0724ZM73.4421 163.819C74.4348 164.15 77.4479 165.155 81.8107 159.896C87.979 152.458 93.7738 146.128 96.44 143.265C95.7648 142.687 95.1187 142.076 94.5039 141.435C88.5139 135.169 85.7871 126.49 87.024 117.622C88.3554 108.081 87.8571 99.6553 87.5893 95.1273L87.5892 95.1259L87.5861 95.0742C87.5152 93.8645 87.4634 92.9819 87.4649 92.3559C87.4264 90.7103 87.0573 63.7925 102.619 48.0376C102.694 47.9614 102.771 47.8886 102.848 47.8158C102.91 47.7576 102.972 47.6994 103.032 47.6394C93.5489 44.5416 69.9483 38.4337 55.5935 48.6383C46.773 54.9094 42.7242 66.5788 43.5587 83.323C43.8235 88.6174 47.1644 107.498 52.8814 126.275C59.4885 147.974 66.9825 161.659 73.4408 163.818L73.4421 163.819ZM92.4237 118.379C91.4198 125.578 93.6125 132.603 98.4403 137.653V137.652C102.237 141.625 107.23 143.823 112.362 143.837C112.951 141.416 113.899 138.867 114.919 136.126L114.926 136.107L115.33 135.02C115.85 133.614 116.461 132.254 117.107 130.816L117.107 130.815C120.241 123.834 124.14 115.148 119.646 94.3071C118.777 90.2816 116.688 87.9411 113.26 87.1542C105.746 85.4285 95.2112 91.087 92.9378 93.1079C92.9567 93.5401 92.989 94.0822 93.0256 94.6995L93.0318 94.8025C93.3107 99.5192 93.8293 108.298 92.4237 118.379ZM95.5907 164.193C96.3815 164.733 97.7294 165.385 99.2282 165.76C106.503 167.586 116.632 167.711 123.583 157.954C124.406 156.797 124.155 155.311 123.93 154.528C123.457 152.87 122.289 151.363 121.09 150.866L121.089 150.866C119.61 150.25 118.794 149.911 117.01 151.913L117.009 151.914C115.811 153.255 114.946 154.356 114.184 155.327C110.856 159.563 109.332 161 99.4657 163.036C97.4268 163.457 96.2513 163.881 95.5907 164.193ZM131.704 203.291C134.52 210.349 138.794 216.523 150.864 213.93V213.931C162.506 211.428 166.647 207.226 168.587 195.946C170.057 187.408 172.951 163.242 173.358 158.08C172.853 147.793 178.389 145.735 181.471 144.845C181.076 144.277 180.556 143.626 180.021 142.956C178.274 140.768 175.882 137.77 174.034 133.281C173.751 132.594 172.853 130.978 171.812 129.108C166.137 118.906 154.33 97.6778 161.962 86.7404C165.47 81.7122 172.391 79.6987 182.566 80.7363C181.213 76.7063 177.823 69.2345 171.561 61.8176C164.295 53.2097 151.42 42.8804 131.342 42.5511C121.152 42.382 112.789 45.5176 106.509 51.8658C96.5354 61.9504 93.8692 77.8892 93.1634 86.4178C93.628 86.1582 94.1252 85.8912 94.6689 85.6153C97.1975 84.3301 102.267 82.089 107.808 81.5142C117.051 80.5538 123.148 84.6876 124.974 93.1524C129.849 115.752 125.357 125.755 122.078 133.059L122.059 133.102C121.459 134.439 120.892 135.703 120.44 136.923L120.034 138.017C119.066 140.617 118.173 143.019 117.658 145.146C120.072 144.527 122.082 145.361 123.176 145.816L123.176 145.816C125.932 146.961 128.229 149.723 129.172 153.025C129.322 153.55 129.435 154.086 129.509 154.628C129.592 154.902 129.635 155.194 129.627 155.496C129.444 162.047 129.388 168.419 129.445 174.279C129.647 176.835 129.723 179.525 129.645 182.14C129.637 182.399 129.63 182.656 129.622 182.911C129.953 193.117 130.682 200.73 131.704 203.291ZM187.811 158.934C192.821 158.697 198.095 157.597 201.247 156.131C204.912 154.425 207.496 152.525 209.007 151.109L208.884 151.134C197.685 153.451 189.752 153.134 185.304 150.191C185.026 150.007 184.772 149.819 184.541 149.63C184.168 149.761 183.782 149.87 183.386 149.981L183.386 149.981C180.867 150.69 178.487 151.36 178.798 157.77C179.461 158.312 182.278 159.193 187.811 158.934ZM112.405 90.2984C110.425 90.0551 108.633 90.2801 107.725 90.8866C107.216 91.2277 107.058 91.6229 107.015 91.8948C106.901 92.6154 107.473 93.4124 107.824 93.8232C108.819 94.9866 110.271 95.7862 111.709 95.9623C111.917 95.9883 112.124 96.0001 112.331 96.0001C114.728 96.0001 116.908 94.3521 117.1 93.1359C117.34 91.6124 114.835 90.597 112.405 90.299V90.2984ZM177.99 90.3466C177.801 89.1525 175.394 88.8121 173.11 89.0925C170.829 89.373 168.617 90.2821 168.802 91.4787C168.95 92.4094 170.853 93.998 173.107 93.998C173.297 93.998 173.489 93.9869 173.683 93.9628C175.187 93.7789 176.29 92.9356 176.815 92.4498C177.613 91.709 178.075 90.8833 177.99 90.3466Z" fill="currentColor" />
  <path fill-rule="evenodd" clip-rule="evenodd" d="M221.5 146.809C220.364 143.366 217.388 140.968 213.54 140.393C211.725 140.122 209.647 140.237 207.188 140.744C202.902 141.629 199.721 141.966 197.401 142.032C206.161 127.231 213.284 110.352 217.384 94.4641C224.015 68.7732 220.472 57.0695 216.331 51.7756C205.373 37.7634 189.386 30.2359 170.099 30.0056C159.81 29.8797 150.777 31.9126 146.065 33.3746C141.678 32.5999 136.961 32.1674 132.012 32.0874C122.734 31.9393 114.536 33.9634 107.531 38.1233C103.654 36.811 97.4297 34.961 90.2423 33.7804C73.338 31.0032 59.7136 33.1672 49.748 40.2126C37.6807 48.7429 32.0866 63.5638 33.1212 84.2637C33.4498 90.8358 37.1234 110.832 42.9077 129.796C46.232 140.696 49.7768 149.748 53.4438 156.702C58.6442 166.563 64.2086 172.37 70.4554 174.456C73.9566 175.623 80.3182 176.441 87.009 170.864C87.8571 171.892 88.9886 172.913 90.4902 173.862C92.3973 175.066 94.7292 176.049 97.0582 176.632C105.451 178.731 113.313 178.206 120.02 175.263C120.061 176.457 120.093 177.598 120.12 178.583C120.164 180.18 120.209 181.747 120.267 183.211C120.664 193.116 121.338 200.818 123.333 206.206C123.443 206.503 123.59 206.954 123.745 207.434L123.747 207.44C124.743 210.49 126.408 215.592 130.64 219.588C135.024 223.73 140.328 225 145.186 225C147.622 225 149.947 224.68 151.986 224.243C159.253 222.684 167.507 220.31 173.478 211.802C179.123 203.759 181.867 191.645 182.364 172.557C182.391 172.323 182.418 172.094 182.444 171.87C182.466 171.683 182.487 171.5 182.508 171.319L182.544 171.011L182.663 170.002L183.992 170.119L184.335 170.142C191.737 170.48 200.788 168.909 206.346 166.325C210.739 164.285 224.814 156.849 221.5 146.809ZM112.405 90.2983C110.425 90.055 108.632 90.28 107.725 90.8865C107.216 91.2276 107.058 91.6228 107.015 91.8947C106.901 92.6154 107.473 93.4123 107.824 93.8231C108.819 94.9866 110.271 95.7861 111.708 95.9622C111.917 95.9883 112.124 96 112.33 96C114.728 96 116.907 94.352 117.099 93.1358C117.34 91.6124 114.835 90.597 112.405 90.2989V90.2983ZM177.99 90.3465C177.801 89.1525 175.394 88.812 173.11 89.0925C170.829 89.3729 168.617 90.282 168.802 91.4787C168.95 92.4093 170.853 93.9979 173.106 93.9979C173.297 93.9979 173.489 93.9868 173.683 93.9627C175.187 93.7788 176.29 92.9356 176.815 92.4497C177.613 91.7089 178.075 90.8833 177.99 90.3465ZM207.781 145.781C212.267 144.853 214.967 145.671 215.806 148.214C217.426 153.128 208.493 158.783 203.542 161.088C199.135 163.139 192.108 164.436 186.018 164.436C183.098 164.437 180.397 164.136 178.299 163.48C177.305 172.642 175.191 189.722 173.96 196.875C171.658 210.259 165.708 216.33 152.007 219.274C149.674 219.775 147.554 220 145.627 220C132.501 220.001 128.344 209.586 126.642 205.322L126.642 205.32C124.564 200.114 123.843 183.024 123.989 165.68C119.253 169.973 113.326 172.192 106.592 172.192C103.823 172.192 100.919 171.819 97.9054 171.063C97.0406 170.846 89.4497 168.803 89.5503 163.938C89.6434 159.488 95.9718 158.178 98.3611 157.684L98.3655 157.683C106.752 155.952 107.295 155.261 109.9 151.946L109.9 151.946C110.52 151.15 111.154 150.365 111.801 149.591C111.799 149.568 111.797 149.545 111.795 149.522C111.788 149.447 111.781 149.371 111.776 149.296C108.015 149.195 104.339 148.189 100.992 146.389C95.8333 151.91 90.8349 157.58 86.003 163.391C82.0415 168.165 78.2338 169.569 75.1282 169.569C73.8609 169.569 72.712 169.336 71.7155 169.003C63.2021 166.156 55.1103 152.316 47.6666 127.87C42.0117 109.296 38.4282 89.9011 38.1138 83.5966C37.1794 64.8574 42.0028 51.5929 52.4508 44.1722C61.2069 37.9538 73.477 36.0656 88.9177 38.5574C97.8492 39.9999 105.152 42.5132 107.978 43.5678C114.484 39.1203 122.342 36.9385 131.432 37.0861C136.39 37.1677 140.943 37.8069 145.12 38.8482C147.103 37.9745 157.335 34.8679 169.444 35.0044C187.058 35.1912 201.61 42.0037 211.524 54.7039C213.984 57.8543 215.176 63.0115 215.067 70.0295C214.969 76.4237 213.767 84.2685 211.59 92.7155C206.995 110.548 198.478 129.661 188.125 145.472C189.691 146.628 194.461 148.537 207.781 145.781ZM182.367 94.0267C182.761 91.4637 183.132 89.0082 183.177 86.3035C172.409 84.9634 168.119 87.4523 166.429 89.8729C160.754 98.0054 171.839 117.935 176.573 126.446L176.573 126.446C177.79 128.633 178.669 130.212 179.074 131.196C179.494 132.215 179.976 133.208 180.516 134.169C183.772 127.223 182.931 120.184 182.111 113.346L182.111 113.34C181.705 109.956 181.287 106.458 181.395 103.093C181.505 99.6333 181.943 96.7833 182.367 94.0267ZM207.231 58.0724C198.392 46.7493 185.907 40.8305 170.125 40.4812C163.895 40.3425 158.331 41.1309 154.262 41.9763C163.722 46.1605 170.65 52.3641 175.401 57.9077C184.086 68.0427 188.347 79.2403 188.698 82.9818C188.752 83.5558 188.711 84.0393 188.608 84.4487C188.746 88.3504 188.246 91.6602 187.756 94.8588C187.356 97.4545 186.944 100.139 186.844 103.269C186.748 106.222 187.126 109.366 187.525 112.694C188.497 120.804 189.589 129.952 184.004 139.198L184.278 139.54C184.498 139.816 184.716 140.092 184.934 140.369C206.545 106.276 214.01 66.7574 207.231 58.0724ZM73.442 163.819C74.4347 164.15 77.4478 165.155 81.8106 159.896C87.979 152.458 93.7737 146.128 96.4399 143.265C95.7647 142.687 95.1186 142.076 94.5039 141.435C88.5138 135.169 85.787 126.49 87.0239 117.622C88.3554 108.081 87.857 99.6552 87.5892 95.1273L87.5891 95.1258L87.5861 95.0741C87.5151 93.8644 87.4634 92.9818 87.4648 92.3558C87.4263 90.7102 87.0572 63.7925 102.619 48.0375C102.694 47.9613 102.771 47.8885 102.848 47.8157C102.91 47.7575 102.972 47.6993 103.032 47.6393C93.5488 44.5416 69.9482 38.4336 55.5934 48.6382C46.773 54.9094 42.7241 66.5787 43.5586 83.3229C43.8234 88.6173 47.1643 107.498 52.8814 126.274C59.4884 147.974 66.9824 161.658 73.4407 163.818L73.442 163.819ZM92.4236 118.378C91.4197 125.578 93.6124 132.603 98.4403 137.653V137.652C102.237 141.624 107.23 143.823 112.362 143.837C112.951 141.416 113.899 138.867 114.919 136.125L114.926 136.107L115.33 135.02C115.85 133.613 116.461 132.254 117.106 130.816L117.107 130.815C120.241 123.834 124.14 115.148 119.645 94.307C118.777 90.2815 116.688 87.941 113.26 87.1541C105.746 85.4284 95.2111 91.0869 92.9377 93.1078C92.9567 93.54 92.9889 94.0821 93.0256 94.6994L93.0317 94.8024C93.3106 99.5191 93.8292 108.298 92.4236 118.378ZM95.5906 164.193C96.3814 164.733 97.7293 165.385 99.2281 165.76C106.502 167.585 116.632 167.711 123.583 157.954C124.406 156.797 124.154 155.311 123.93 154.528C123.457 152.87 122.289 151.363 121.089 150.866L121.089 150.866C119.61 150.25 118.794 149.911 117.01 151.913L117.009 151.914C115.811 153.255 114.946 154.356 114.184 155.327C110.856 159.563 109.332 161 99.4656 163.036C97.4268 163.457 96.2512 163.881 95.5906 164.193ZM131.704 203.291C134.52 210.349 138.794 216.523 150.864 213.93V213.931C162.506 211.428 166.647 207.226 168.587 195.946C170.057 187.408 172.951 163.242 173.357 158.08C172.853 147.793 178.389 145.735 181.471 144.845C181.076 144.276 180.556 143.626 180.021 142.956C178.274 140.768 175.882 137.77 174.034 133.281C173.751 132.594 172.853 130.978 171.812 129.108C166.137 118.906 154.329 97.6777 161.962 86.7403C165.47 81.7121 172.391 79.6987 182.566 80.7362C181.213 76.7062 177.823 69.2344 171.561 61.8175C164.295 53.2096 151.42 42.8803 131.342 42.5511C121.152 42.382 112.789 45.5175 106.509 51.8658C96.5353 61.9503 93.8691 77.8891 93.1634 86.4177C93.628 86.1581 94.1251 85.8912 94.6688 85.6153C97.1974 84.3301 102.267 82.0889 107.808 81.5141C117.051 80.5537 123.148 84.6875 124.974 93.1523C129.849 115.752 125.357 125.755 122.078 133.059L122.058 133.102C121.459 134.439 120.892 135.702 120.44 136.923L120.034 138.016C119.065 140.617 118.173 143.019 117.658 145.146C120.072 144.527 122.081 145.361 123.176 145.816L123.176 145.816C125.932 146.961 128.229 149.723 129.172 153.025C129.322 153.55 129.435 154.086 129.509 154.628C129.592 154.902 129.635 155.194 129.627 155.496C128.993 178.187 129.886 198.734 131.704 203.291ZM187.811 158.934C192.821 158.697 198.095 157.597 201.247 156.131C204.912 154.425 207.496 152.525 209.007 151.109L208.884 151.133C197.685 153.451 189.752 153.134 185.304 150.191C185.026 150.007 184.772 149.819 184.541 149.63C184.168 149.761 183.782 149.87 183.386 149.981L183.386 149.981C180.867 150.69 178.487 151.36 178.798 157.77C179.461 158.312 182.278 159.193 187.811 158.934Z" fill="currentColor" />
</svg>

<svg width="256" height="256" viewBox="0 0 256 256" fill="none" xmlns="http://www.w3.org/2000/svg">
  <path fill-rule="evenodd" clip-rule="evenodd" d="M182.367 94.027c.394-2.563.765-5.019.81-7.723-10.768-1.34-15.058 1.148-16.748 3.569-5.675 8.132 5.41 28.063 10.144 36.573v.001c1.217 2.186 2.096 3.766 2.501 4.749a27.33 27.33 0 0 0 1.442 2.973c3.256-6.946 2.415-13.985 1.595-20.823v-.006c-.405-3.384-.824-6.882-.716-10.247.111-3.46.548-6.31.972-9.066Zm24.864-35.955c-8.839-11.323-21.324-17.241-37.106-17.59-6.23-.14-11.794.649-15.863 1.494 9.46 4.185 16.388 10.388 21.139 15.932 8.685 10.135 12.946 21.332 13.297 25.074a4.321 4.321 0 0 1-.09 1.467c.138 3.901-.362 7.211-.852 10.41-.399 2.596-.812 5.28-.911 8.41-.097 2.953.281 6.097.68 9.425.972 8.11 2.064 17.258-3.52 26.504l.273.343c.22.275.438.551.656.828 21.611-34.093 29.076-73.612 22.297-82.297ZM73.442 163.82c.993.331 4.006 1.336 8.369-3.923a401.32 401.32 0 0 1 14.629-16.631 27.124 27.124 0 0 1-1.936-1.83c-5.99-6.266-8.717-14.945-7.48-23.813 1.331-9.541.833-17.967.565-22.495v-.001l-.003-.052c-.07-1.21-.123-2.092-.121-2.718-.039-1.646-.408-28.563 15.154-44.318.075-.077.152-.15.229-.222.062-.058.124-.117.184-.177-9.483-3.097-33.084-9.205-47.438 1-8.821 6.27-12.87 17.94-12.035 34.684.265 5.294 3.605 24.175 9.322 42.952 6.608 21.699 14.102 35.384 20.56 37.543l.001.001Zm18.982-45.44c-1.004 7.199 1.188 14.224 6.016 19.274v-.001c3.797 3.973 8.79 6.171 13.922 6.185.589-2.421 1.537-4.97 2.557-7.711l.007-.019.404-1.087c.52-1.406 1.131-2.766 1.777-4.204v-.001c3.134-6.981 7.033-15.667 2.539-36.508-.869-4.025-2.958-6.366-6.386-7.153-7.514-1.725-18.049 3.933-20.322 5.954.019.432.051.974.088 1.591l.006.103c.279 4.717.797 13.496-.608 23.577Zm3.167 45.814c.79.54 2.138 1.192 3.637 1.567 7.275 1.826 17.404 1.951 24.355-7.806.823-1.157.572-2.643.347-3.426-.473-1.658-1.641-3.165-2.84-3.662h-.001c-1.479-.616-2.295-.955-4.079 1.047l-.001.001c-1.198 1.341-2.063 2.442-2.825 3.413-3.328 4.236-4.852 5.673-14.718 7.709-2.04.421-3.215.845-3.875 1.157Zm36.113 39.098c2.816 7.058 7.09 13.232 19.16 10.639v.001c11.642-2.503 15.783-6.705 17.723-17.985 1.47-8.538 4.364-32.704 4.771-37.866-.505-10.287 5.031-12.345 8.113-13.235-.395-.568-.915-1.219-1.45-1.889-1.747-2.188-4.139-5.186-5.987-9.675-.283-.687-1.181-2.303-2.222-4.173-5.675-10.202-17.482-31.43-9.85-42.368 3.508-5.028 10.429-7.041 20.604-6.004-1.353-4.03-4.743-11.502-11.005-18.918-7.266-8.608-20.141-18.938-40.219-19.267-10.19-.169-18.553 2.967-24.833 9.315-9.974 10.084-12.64 26.023-13.346 34.552.465-.26.962-.527 1.506-.803 2.529-1.285 7.598-3.526 13.139-4.1 9.243-.961 15.34 3.173 17.166 11.637 4.875 22.6.383 32.603-2.896 39.907l-.019.043c-.6 1.337-1.167 2.601-1.619 3.821l-.406 1.094c-.968 2.6-1.861 5.002-2.376 7.129 2.414-.619 4.424.215 5.518.67 2.756 1.145 5.053 3.907 5.996 7.209a11.5 11.5 0 0 1 .337 1.603c.083.274.126.566.118.868a503.792 503.792 0 0 0-.182 18.783c.202 2.556.278 5.246.2 7.861l-.023.771c.331 10.206 1.06 17.819 2.082 20.38Zm56.107-44.357c5.01-.237 10.284-1.337 13.436-2.803 3.665-1.706 6.249-3.606 7.76-5.022l-.123.025c-11.199 2.317-19.132 2-23.58-.943a9.38 9.38 0 0 1-.763-.561c-.373.131-.759.24-1.155.351-2.519.709-4.899 1.379-4.588 7.789.663.542 3.48 1.423 9.013 1.164Zm-75.406-68.636c-1.98-.243-3.772-.018-4.68.589-.509.34-.667.736-.71 1.008-.114.72.458 1.517.809 1.928.995 1.164 2.447 1.963 3.885 2.14.208.025.415.037.622.037 2.397 0 4.577-1.648 4.769-2.864.24-1.524-2.265-2.539-4.695-2.837Zm65.585.049c-.189-1.194-2.596-1.535-4.88-1.254-2.281.28-4.493 1.19-4.308 2.386.148.93 2.051 2.519 4.305 2.519.19 0 .382-.011.576-.035 1.504-.184 2.607-1.027 3.132-1.513.798-.741 1.26-1.567 1.175-2.103Z" fill="currentColor"/>
  <path fill-rule="evenodd" clip-rule="evenodd" d="M221.5 146.809c-1.136-3.443-4.112-5.841-7.96-6.416-1.815-.271-3.893-.156-6.352.351-4.286.885-7.467 1.222-9.787 1.288 8.76-14.801 15.883-31.68 19.983-47.568 6.631-25.69 3.088-37.395-1.053-42.688-10.958-14.013-26.945-21.54-46.232-21.77-10.289-.126-19.322 1.907-24.034 3.369-4.387-.775-9.104-1.208-14.053-1.288-9.278-.148-17.476 1.876-24.481 6.036-3.877-1.312-10.101-3.162-17.289-4.343-16.904-2.777-30.528-.613-40.494 6.433-12.067 8.53-17.661 23.35-16.627 44.05.329 6.573 4.002 26.569 9.787 45.533 3.324 10.9 6.869 19.952 10.536 26.906 5.2 9.861 10.765 15.668 17.011 17.754 3.502 1.167 9.863 1.985 16.554-3.592.848 1.028 1.98 2.049 3.481 2.998 1.907 1.204 4.24 2.187 6.568 2.77 8.393 2.099 16.255 1.574 22.962-1.369.041 1.194.073 2.335.1 3.32.044 1.597.089 3.164.147 4.628.397 9.905 1.071 17.607 3.066 22.995.11.297.257.748.412 1.228l.002.006c.996 3.05 2.661 8.152 6.893 12.148 4.384 4.142 9.688 5.412 14.546 5.412 2.436 0 4.761-.32 6.8-.757 7.267-1.559 15.521-3.933 21.492-12.441 5.645-8.043 8.389-20.157 8.886-39.245l.08-.687.064-.551.036-.308.119-1.009 1.329.117.343.023c7.402.338 16.453-1.233 22.011-3.817 4.393-2.04 18.468-9.476 15.154-19.516Zm-109.095-56.51c-1.98-.244-3.773-.019-4.68.587-.509.342-.667.737-.71 1.009-.114.72.458 1.517.809 1.928.995 1.164 2.447 1.963 3.884 2.14.209.025.416.037.622.037 2.398 0 4.577-1.648 4.769-2.864.241-1.524-2.264-2.539-4.694-2.837Zm65.585.047c-.189-1.194-2.596-1.534-4.88-1.254-2.281.28-4.493 1.19-4.308 2.387.148.93 2.051 2.519 4.304 2.519.191 0 .383-.011.577-.035 1.504-.184 2.607-1.027 3.132-1.513.798-.741 1.26-1.567 1.175-2.103Zm29.791 55.435c4.486-.928 7.186-.11 8.025 2.433 1.62 4.914-7.313 10.569-12.264 12.874-4.407 2.051-11.434 3.348-17.524 3.348-2.92.001-5.621-.3-7.719-.956-.994 9.162-3.108 26.242-4.339 33.395-2.302 13.384-8.252 19.455-21.953 22.399-2.333.501-4.453.726-6.38.726-13.126.001-17.283-10.414-18.985-14.678v-.002c-2.078-5.206-2.799-22.296-2.653-39.64-4.736 4.293-10.663 6.512-17.397 6.512-2.769 0-5.673-.373-8.687-1.129-.864-.217-8.455-2.26-8.355-7.125.093-4.45 6.422-5.76 8.811-6.254l.004-.001c8.387-1.731 8.93-2.422 11.535-5.737a87.674 87.674 0 0 1 1.901-2.355l-.006-.069a8.603 8.603 0 0 1-.019-.226c-3.761-.101-7.437-1.107-10.784-2.907a392.024 392.024 0 0 0-14.989 17.002c-3.962 4.774-7.77 6.178-10.875 6.178-1.267 0-2.416-.233-3.412-.566-8.514-2.847-16.606-16.687-24.05-41.133-5.654-18.574-9.238-37.969-9.552-44.273-.935-18.74 3.889-32.004 14.337-39.425 8.756-6.218 21.026-8.106 36.467-5.615 8.931 1.443 16.234 3.956 19.06 5.01 6.506-4.447 14.364-6.629 23.454-6.48 4.958.08 9.511.72 13.688 1.761 1.983-.873 12.215-3.98 24.324-3.844 17.614.187 32.166 7 42.08 19.7 2.46 3.15 3.652 8.307 3.543 15.325-.098 6.395-1.3 14.24-3.477 22.687-4.595 17.832-13.112 36.945-23.465 52.756 1.566 1.156 6.336 3.065 19.656.309Zm-25.414-51.754c.394-2.563.765-5.019.81-7.724-10.768-1.34-15.058 1.15-16.748 3.57-5.675 8.132 5.41 28.062 10.144 36.573 1.217 2.187 2.096 3.766 2.501 4.75a27.33 27.33 0 0 0 1.442 2.973c3.256-6.946 2.415-13.985 1.595-20.823v-.006c-.406-3.384-.824-6.882-.716-10.247.11-3.46.548-6.31.972-9.066Zm24.864-35.955c-8.839-11.323-21.324-17.242-37.106-17.59-6.23-.14-11.794.649-15.863 1.494 9.46 4.184 16.388 10.388 21.139 15.932 8.685 10.135 12.946 21.332 13.297 25.074a4.321 4.321 0 0 1-.09 1.467c.138 3.901-.362 7.211-.852 10.41-.4 2.596-.812 5.28-.912 8.41-.096 2.953.282 6.097.681 9.425.972 8.11 2.064 17.258-3.521 26.504l.274.342c.22.276.438.552.656.829 21.611-34.093 29.076-73.612 22.297-82.297ZM73.442 163.82c.993.331 4.006 1.336 8.369-3.923a401.397 401.397 0 0 1 14.629-16.631 27.101 27.101 0 0 1-1.936-1.83c-5.99-6.266-8.717-14.945-7.48-23.813 1.331-9.541.833-17.967.565-22.495v-.001l-.003-.052c-.07-1.21-.123-2.092-.121-2.718-.039-1.646-.408-28.563 15.154-44.318.075-.077.152-.15.229-.222.062-.059.124-.117.184-.177-9.483-3.097-33.084-9.205-47.439 1-8.82 6.27-12.869 17.94-12.034 34.684.264 5.294 3.605 24.175 9.322 42.951 6.607 21.7 14.101 35.384 20.56 37.544l.001.001Zm18.982-45.441c-1.004 7.2 1.188 14.225 6.016 19.275v-.001c3.797 3.972 8.79 6.171 13.922 6.185.589-2.421 1.537-4.97 2.557-7.712l.007-.018.404-1.087c.52-1.407 1.131-2.766 1.776-4.204l.001-.001c3.134-6.981 7.033-15.667 2.538-36.508-.868-4.026-2.957-6.366-6.385-7.153-7.514-1.726-18.049 3.933-20.322 5.954.019.432.05.974.088 1.591l.006.103c.279 4.717.797 13.496-.608 23.576Zm3.167 45.815c.79.54 2.138 1.192 3.637 1.567 7.274 1.825 17.404 1.951 24.355-7.806.823-1.157.571-2.643.347-3.426-.473-1.658-1.641-3.165-2.841-3.662-1.479-.616-2.295-.955-4.079 1.047l-.001.001c-1.198 1.341-2.063 2.442-2.825 3.413-3.328 4.236-4.852 5.673-14.718 7.709-2.04.421-3.215.845-3.875 1.157Zm36.113 39.098c2.816 7.058 7.09 13.232 19.16 10.639v.001c11.642-2.503 15.783-6.705 17.723-17.985 1.47-8.538 4.364-32.704 4.77-37.866-.504-10.287 5.032-12.345 8.114-13.235-.395-.569-.915-1.219-1.45-1.889-1.747-2.188-4.139-5.186-5.987-9.675-.283-.687-1.181-2.303-2.222-4.173-5.675-10.202-17.483-31.43-9.85-42.368 3.508-5.028 10.429-7.041 20.604-6.004-1.353-4.03-4.743-11.502-11.005-18.919-7.266-8.607-20.141-18.937-40.219-19.266-10.19-.169-18.553 2.966-24.833 9.315-9.974 10.084-12.64 26.023-13.346 34.552.465-.26.962-.527 1.506-.803 2.528-1.285 7.598-3.526 13.139-4.1 9.243-.961 15.34 3.172 17.166 11.637 4.875 22.6.383 32.603-2.896 39.907l-.02.043c-.599 1.337-1.166 2.6-1.618 3.821l-.406 1.093c-.969 2.601-1.861 5.003-2.376 7.13 2.414-.619 4.423.215 5.518.67 2.756 1.145 5.053 3.907 5.996 7.209a11.5 11.5 0 0 1 .337 1.603c.083.274.126.566.118.868-.634 22.691.259 43.238 2.077 47.795Zm56.107-44.357c5.01-.237 10.284-1.337 13.436-2.803 3.665-1.706 6.249-3.606 7.76-5.022l-.123.024c-11.199 2.318-19.132 2.001-23.58-.942a9.38 9.38 0 0 1-.763-.561c-.373.131-.759.24-1.155.351-2.519.709-4.899 1.379-4.588 7.789.663.542 3.48 1.423 9.013 1.164Z" fill="currentColor"/>
</svg>
